!!!OTL: Voltigeurs (2-54) S. 172
!!!id: P0927
**kern
*clefG2
*k[f#c#]
*D:
{16e
16f#
=1
8a
16a
16a
16a
16b
16a
16g
=2
8f#
8d
8d
8d
=3
8.e
16f#
16g
16b
16a
16g
=4
8g
8f#}
8r
=5
{16a
16b
=6
16b
16b
16a
16a
8b
16cc#
16a
=7
8dd
16cc#
16b
8a}
16r
=8
{16g
=9
8f#
8f#
8a
16g
16e
=10
8e
8a
8d}
==
*-
!!!minrhy: 16
!!!meters: 2/4 ]  ZZ[3
!!!cut: Voltigeurs (2-54) S. 172
!!!reg: Lothringen
!!!trd: PINCK, Louis: Verklingende Weisen, Bd 2, Metz 1928
!!!rhy1: XX  X_XXXXXX  X_X_X_X_  X_.XXXXX  X_X_0_
!!!rhy2: XX  XXXXX_XX  X_XXX_0
!!!key: P0927  16  D 2/4 ]  ZZ[3
!!!mod: HEPTATONIK IONISCH]  AMBITUS[8
!!!kad: 351
!!!akz: 5324_6+1_32_
!!!fot: 'a__b__c__
!!!for: 'a__b__c__
!!!fok: 'Ma_^__\__
!! PHRAS[AUFTAKTIG]
!!!fkt: ???, Liebe? Trinken?
!! LOTH VKL
!! PR[14] 2K[5] 2G[9] 3K[11] 3G[9] 4A[7] 4Ü[0] 5A[0] 6K[0] 6G[0]
!! 7K[0] 7G[0] 8A[0] MEHR[0] SI[41] ABS[44] SR[14] SP[27]
!! ST[12] 2k[7] 2g[16] 3k[14] 3g[9] 4d[0] 4ü[0] 5d[0] 6k[0] 6g[0]
!! 7k[0] 7g[0] 8d[0] mehr[0] si[45] dm[-4] sr[23] sp[23]
!! 1F[55] 2F[43] 3F[0] 4F[0] LF[0] 2P[2] 3P[0] 4P[0] TRI[0] DF[3] AB[49]
!! TF[0] U3K[0] U3[0] U4[0] U4Ü[0] U5[7] U6K[0] U6[4] U7K[0] U7[13]
!! N1[24] N2K[0] N2[20] N3K[0] N3[18] N4[7] N4Ü[0] N5[7] N6K[0] N6[0]
!!!n7k: 0] N7[0] O1[0] O2K[0] O2[0] O3K[0] O3[0] HÖ[0
